X:1
T: Friend of my Heart
C:
R:Jig
Q:180
K:Gm
M:6/8
L:1/16
c2|B2A2G2 F2D2C2|D2E2^F2 G4c2|d2f2d2 c2d2c2|B2A2G2 F2D2C2|F2D2E2 F2G2A2|def2d2 c2A2F2|A2G2G2 G4c2|
B2A2G2 F2D2C2|D2E2^F2 G4c2|d2f2d2 c2d2c2|B2A2G2 F2D2C2|F2D2E2 F2G2A2|def2d2 c2A2F2|A2G2G2 G4D2|
G2B2d2 g2^f2g2|d2e2c2 B2A2G2|F2A2c2 f2=e2f2|c2d2B2 A2G2F2|G2B2d2 g4a2|b2a2g2 f2g2a2|d2=e2f2 g2d2c2|B2G2G2 G4D2|
G2B2d2 g2^f2g2|d2e2c2 B2A2G2|F2A2c2 f2=e2f2|c2d2B2 A2G2F2|G2B2d2 g4a2|b2a2g2 f2g2a2|d2=e2f2 g2d2c2|B2G2G2 G4||
